images/授信详情/u2414.svg

﻿<?xml version="1.0" encoding="utf-8"?>
<svg version="1.1" xmlns:xlink="http://www.w3.org/1999/xlink" width="1440px" height="1851px" xmlns="http://www.w3.org/2000/svg">
  <defs>
    <mask fill="white" id="clip44">
      <path d="M 2239.5 904  L 2414.5 904  L 2414.5 949  L 2239.5 949  Z M 1606 0  L 3046 0  L 3046 1851  L 1606 1851  Z " fill-rule="evenodd" />
    </mask>
  </defs>
  <g transform="matrix(1 0 0 1 -1606 0 )">
    <path d="M 1606.5 0.5  L 3045.5 0.5  L 3045.5 1850.5  L 1606.5 1850.5  L 1606.5 0.5  Z " fill-rule="nonzero" fill="#f2f2f2" stroke="none" fill-opacity="0.494117647058824" />
    <path d="M 1606.5 0.5  L 3045.5 0.5  L 3045.5 1850.5  L 1606.5 1850.5  L 1606.5 0.5  Z " stroke-width="1" stroke="#797979" fill="none" />
    <path d="M 1606.39464166547 0.507278974150199  L 3045.60535833453 1850.49272102585  M 3045.60535833453 0.507278974150199  L 1606.39464166547 1850.49272102585  " stroke-width="1" stroke="#797979" fill="none" mask="url(#clip44)" />
  </g>
</svg>

<svg xmlns="http://www.w3.org/2000/svg" width="1440" height="1851"><defs><mask id="a" fill="#fff"><path fill-rule="evenodd" d="M2239.5 904h175v45h-175ZM1606 0h1440v1851H1606Z"/></mask></defs><path fill="#f2f2f2" fill-opacity=".494" d="M.5.5h1439v1850H.5z"/><path fill="none" stroke="#797979" d="M.5.5h1439v1850H.5z"/><path fill="none" stroke="#797979" d="m1606.395.507 1439.21 1849.986m0-1849.986-1439.21 1849.986" mask="url(#a)" transform="translate(-1606)"/></svg>
